X:1
T:The Old Book Stands
T:Lewis Edgar Jones
T:The Old Book Stands
T:Public Domain
T:Public Domain
T:Public Domain
C:Lewis Edgar Jones
Z:Public Domain
%%score ( 1 2 ) ( 3 4 )
L:1/8
M:4/4
K:G
V:1 treble 
V:2 treble 
V:3 bass 
V:4 bass 
V:1
 [GB][Ac] | [Bd]2 [GB]2 [B,G]2 [DB][DG] | [EA][EG][DF][CE] [B,D]2 [DG][DA] | %3
w: 1.~From the|Word of God light is|shin- ing bright- ly out O’er life’s|
w: 2.~All its|prom- is- es are more|pre- cious, far, than gold, Or than|
w: 3.~In this|pre- cious Book is the|dear old sto- ry told, Of the|
w: 4.~Pre- cious|Book of life, let us|trea- sure each com- mand, Heed- ing|
 [GB]2 [DG]2 [DF]2 [DG]2 | [FA]6 [Fd][Fc] | [GB]2 [DA]2 [DG]2 [DG][DB] | %6
w: o- cean, temp- est|driv’n, Guid- ing|past the rocks and the|
w: pearls from deep- est|sea; “Who- so-|ev- er will” is the|
w: Sav- ior and His|love; And with|joy we read of the|
w: ev- ery pre- cept|giv’n, Till the|strife is o’er and vic-|
 [DA][DG][GA][=FB] [Ec]2 [CE][CE] | [B,D]2 [DB]2 [FA]2 [DF]2 | [DG]6 z ||"^Refrain" [GB] | %10
w: hid- den shoals of doubt To the|bliss- ful port of|heav’n.||
w: truth it doth un- fold, Pre- cious|truth for you and|me.|The|
w: streets of pur- est gold, The Je-|ru- sa- lem a-|bove.||
w: tor- i- ous we stand With the|blood washed throng in|heav’n.||
 [Gd]2 [Gd]2 [GB]3 [DG] | [DB]2 [DG]2 [FA]4 | d2 BG E2 A2 | (AG)(AB) [FA]4 | %14
w: ||||
w: old Book stands! O|yes, it stands!|Firm as a rock ’mid|may * run * high;|
w: ||||
w: ||||
 [Fd][Fd][Gd][Gd] [GB]4 | [=FG][FG][FG][FG] [Ec]4 | !>![DB]2 !>![DG]!>![B,D] !>![DA]2 !>![FA]2 | %17
w: |||
w: sweep the sky; Firm- ly|the old Book stands! *||
w: |||
w: |||
 (z DEE D2) |] %18
w: |
w: |
w: |
w: |
V:2
 x2 | x8 | x8 | x8 | x8 | x8 | x8 | x8 | x7 || x | x8 | x8 | d2 BG E2 A2 | G2 G2 x4 | x8 | x8 | %16
w: ||||||||||||||||
w: ||||||||||||shift- ing sands! Bil- lows|temp- est|||
 x8 | G6 |] %18
w: ||
w: ||
V:3
 [G,D][G,D] | [G,D]2 [G,D]2 [G,B,]2 G,[B,,G,] | [C,G,][C,G,][C,G,][E,G,] G,2 [G,B,][G,C] | %3
 [G,D]2 [G,B,]2 [A,C]2 [G,B,]2 | [D,D]6 [D,D][D,D] | [G,D]2 [G,C]2 [G,B,]2 [G,B,]G, | %6
 [G,C][G,B,][G,C][G,D] [C,C]2 [C,G,][C,G,] | [D,G,]2 [D,G,]2 [D,C]2 [D,C]2 | [G,B,]6 z || [G,D] | %10
 [G,B,]2 [G,B,]2 [G,D]3 [G,,B,] | [G,,D]2 [B,,D]2 [D,D]4 | D2 B,G, E,2 A,2 | %13
 [A,^C]2 [A,C]2 [D,D]4 | [D,D]2 [G,B,]2 ([G,D][G,D] [G,D]2) | %15
 [G,B,]2 [G,B,]2 ([C,C][C,G,] [C,G,]2) | [D,G,]2 [D,B,][D,G,] [D,C]2 [D,C]2 | (B,B,CC B,2) |] %18
V:4
 x2 | x6 G, x | x4 G,2 x2 | x8 | x8 | x7 G, | x8 | x8 | x7 || x | x8 | x8 | D2 B,G, E,2 A,2 | x8 | %14
 x8 | x8 | x8 | G,,6 |] %18

